X: 242
T: Jim Donoghue's Reel
T: Jim Donaghue's Reel
R: Reel
N: Jim Donoghue (1910-1990) was a whistle player from Drimacoo, Monasteraden, Co. Sligo
D: 1995: Kevin Crawford: D Flute Album
D: 1997: Nicolas Qumner & Ronan Le Bars: Bms Ag Ol
D: 1999: Colm O'Donnell: Farewell to Evening Dances
D: 2005: Sharon Shannon, Frankie Gavin, Michael McGoldrick & Jim Murray: Tunes
D: Comhaltas: Fionn Seisin, Vol. 3
M: 4/4
L: 1/8
K: D 
~A3F BFAF | BFAF  ED[BB,]D | ~A3F BFAF |  EDEF DEFG  |
~A3F BFAF | DF~F2 ABde     | ~f3e defe |1 dBAF DEFG :| 2 dBAF D4 ||
~f3e fgfe | dfed BAFA | Beed e2de |  f2df edBA |
dffe f2fe | dfed BAFA | ABde fdAF |1 EDEF D4  :| 2 EDEF DEFG ||

